actions/22/selection-exclude.svg

<?xml version="1.0" encoding="UTF-8" standalone="no"?>
<!-- Created with Inkscape (http://www.inkscape.org/) -->

<svg
   xmlns:dc="http://purl.org/dc/elements/1.1/"
   xmlns:cc="http://creativecommons.org/ns#"
   xmlns:rdf="http://www.w3.org/1999/02/22-rdf-syntax-ns#"
   xmlns:svg="http://www.w3.org/2000/svg"
   xmlns="http://www.w3.org/2000/svg"
   xmlns:inkscape="http://www.inkscape.org/namespaces/inkscape"
   version="1.0"
   width="22"
   height="22"
   id="svg8454">
  <defs
     id="defs8456" />
  <metadata
     id="metadata8459">
    <rdf:RDF>
      <cc:Work
         rdf:about="">
        <dc:format>image/svg+xml</dc:format>
        <dc:type
           rdf:resource="http://purl.org/dc/dcmitype/StillImage" />
      </cc:Work>
    </rdf:RDF>
  </metadata>
  <g
     id="layer1">
    <path
       d="M 14,0.5 C 9.8600008,0.5 6.4999998,3.8599992 6.5,8 c 0,0.1657488 0.020644,0.3369172 0.03125,0.5 l 6.96875,0 0,6.96875 C 13.663083,15.479356 13.834251,15.5 14,15.5 18.139999,15.5 21.500001,12.140001 21.5,8 21.5,3.8599993 18.139999,0.49999999 14,0.5 z M 13.5,15.46875 C 9.7527579,15.225056 6.7749445,12.247244 6.53125,8.5 L 0.5,8.5 l 0,13 13,0 0,-6.03125 z"
       inkscape:connector-curvature="0"
       id="rect8467"
       style="fill:#729fcf;fill-opacity:1;stroke:#204a87;stroke-width:0.99999976;stroke-linecap:butt;stroke-linejoin:round;stroke-miterlimit:0;stroke-opacity:1;stroke-dasharray:none;stroke-dashoffset:0" />
    <path
       d="m 14,1.5 c -3.587997,0 -6.5000001,2.9119985 -6.5,6.5 0,0.5170944 0.073229,1.0176796 0.1875,1.5 l -6.1875,0 0,11 11,0 0,-6.1875 C 12.98232,14.426771 13.482906,14.5 14,14.5 17.587997,14.5 20.5,11.588002 20.5,8 20.5,4.4119981 17.587996,1.5000001 14,1.5 z"
       inkscape:connector-curvature="0"
       id="rect8471"
       style="opacity:0.3;fill:none;stroke:#ffffff;stroke-width:0.9999997;stroke-linecap:butt;stroke-linejoin:round;stroke-miterlimit:0;stroke-opacity:1;stroke-dasharray:none;stroke-dashoffset:0" />
  </g>
</svg>

<?xml version="1.0" encoding="UTF-8" standalone="no"?>
<!-- Created with Inkscape (http://www.inkscape.org/) -->
<svg
   xmlns:dc="http://purl.org/dc/elements/1.1/"
   xmlns:cc="http://web.resource.org/cc/"
   xmlns:rdf="http://www.w3.org/1999/02/22-rdf-syntax-ns#"
   xmlns:svg="http://www.w3.org/2000/svg"
   xmlns="http://www.w3.org/2000/svg"
   xmlns:sodipodi="http://sodipodi.sourceforge.net/DTD/sodipodi-0.dtd"
   xmlns:inkscape="http://www.inkscape.org/namespaces/inkscape"
   width="22"
   height="22"
   id="svg8454"
   sodipodi:version="0.32"
   inkscape:version="0.44"
   version="1.0"
   sodipodi:docbase="/home/andreas/project/inkscape/22x22"
   sodipodi:docname="selection-exclude.svg"
   inkscape:export-filename="/home/andreas/project/inkscape/22x22/selection-exclude.png"
   inkscape:export-xdpi="90"
   inkscape:export-ydpi="90">
  <defs
     id="defs8456" />
  <sodipodi:namedview
     id="base"
     pagecolor="#ffffff"
     bordercolor="#666666"
     borderopacity="1.0"
     inkscape:pageopacity="0.0"
     inkscape:pageshadow="2"
     inkscape:zoom="22.395604"
     inkscape:cx="14.991226"
     inkscape:cy="14.288404"
     inkscape:current-layer="layer1"
     showgrid="false"
     inkscape:grid-bbox="true"
     inkscape:document-units="px"
     width="22px"
     height="22px"
     inkscape:window-width="1674"
     inkscape:window-height="970"
     inkscape:window-x="0"
     inkscape:window-y="25" />
  <metadata
     id="metadata8459">
    <rdf:RDF>
      <cc:Work
         rdf:about="">
        <dc:format>image/svg+xml</dc:format>
        <dc:type
           rdf:resource="http://purl.org/dc/dcmitype/StillImage" />
      </cc:Work>
    </rdf:RDF>
  </metadata>
  <g
     id="layer1"
     inkscape:label="Layer 1"
     inkscape:groupmode="layer">
    <path
       style="opacity:1;fill:#729fcf;fill-opacity:1;stroke:#204a87;stroke-width:0.99999976;stroke-linecap:butt;stroke-linejoin:round;stroke-miterlimit:0;stroke-dasharray:none;stroke-dashoffset:0;stroke-opacity:1"
       d="M 14 0.5 C 9.8600008 0.5 6.4999998 3.8599992 6.5 8 C 6.5 8.1657488 6.5206442 8.3369172 6.53125 8.5 L 13.5 8.5 L 13.5 15.46875 C 13.663083 15.479356 13.834251 15.5 14 15.5 C 18.139999 15.5 21.500001 12.140001 21.5 8 C 21.5 3.8599993 18.139999 0.49999999 14 0.5 z M 13.5 15.46875 C 9.7527579 15.225056 6.7749445 12.247244 6.53125 8.5 L 0.5 8.5 L 0.5 21.5 L 13.5 21.5 L 13.5 15.46875 z "
       id="rect8467" />
    <path
       style="opacity:0.3;fill:none;fill-opacity:1;stroke:white;stroke-width:0.9999997;stroke-linecap:butt;stroke-linejoin:round;stroke-miterlimit:0;stroke-dasharray:none;stroke-dashoffset:0;stroke-opacity:1"
       d="M 14 1.5 C 10.412003 1.5 7.4999999 4.4119985 7.5 8 C 7.5 8.5170944 7.5732293 9.0176796 7.6875 9.5 L 1.5 9.5 L 1.5 20.5 L 12.5 20.5 L 12.5 14.3125 C 12.98232 14.426771 13.482906 14.5 14 14.5 C 17.587997 14.5 20.5 11.588002 20.5 8 C 20.5 4.4119981 17.587996 1.5000001 14 1.5 z "
       id="rect8471" />
  </g>
</svg>
